X:170
T:Dusty Miller,The. RH.170
R:Misc.
S:Rev.R.Harrison’s MS,c1815,Cumbria
N:This popular tune appears elsewhere as 12/8, 6/8, 3/, etc.,
N:The rhythm is not common and on this occasion I have
N:ducked out of classifying it. It appears in John Clare’s
N:MS with dance instructions, so really
N:it is a miscellaneous country dance. CGP.
O:England
A:Temple Sowerby,Cumbria
Z:vmp.Simon Wilson. Review PJH, 2008.
M:3/4
L:1/8
Q:3/4=50
K:G
B>cdBAG|FAAcBA|B>cdBAG|DGGBAG:|!
|:B>cdefg|aAAcBA|B>cdefd|gGGBAG:|

